X:1
T:Jimmie and Nancy
M:3/4
L:1/4
K:F
 F A c| f z e/2f/2| g gg/2-f/2| d c z| f e d| c/2 F3/2 z/2 c/2| B A3/2 G/2|\
 F3/2 z/2 c/2c/2| f e d| c3/2 d/2 e| f e d| c3/2- A/2 F| c c3/2 c/2|\
d/2-c/2 A3/2 G/2| B A3/2 G/2| F2 z|
